svgs/solid/share-nodes.svg

<svg xmlns="http://www.w3.org/2000/svg" viewBox="0 0 448 512"><!-- Font Awesome Pro 6.0.0-alpha2 by @fontawesome - https://fontawesome.com License - https://fontawesome.com/license (Commercial License) --><path d="M448 384C448 437.02 405.02 480 352 480S256 437.02 256 384C256 380.016 256.701 376.223 257.174 372.365L162.498 325.025C145.236 341.656 121.863 352 96 352C42.98 352 0 309.02 0 256S42.98 160 96 160C121.863 160 145.236 170.344 162.498 186.975L257.174 139.635C256.701 135.777 256 131.984 256 128C256 74.98 298.98 32 352 32S448 74.98 448 128S405.02 224 352 224C326.137 224 302.766 213.658 285.504 197.027L190.826 244.361C191.299 248.221 192 252.014 192 256S191.299 263.779 190.826 267.639L285.504 314.973C302.766 298.342 326.137 288 352 288C405.02 288 448 330.98 448 384Z"/></svg>

<svg xmlns="http://www.w3.org/2000/svg" viewBox="0 0 448 512"><!--! Font Awesome Pro 6.0.0-alpha3 by @fontawesome - https://fontawesome.com License - https://fontawesome.com/license (Commercial License) --><path d="M448 384c0 53.02-42.98 96-96 96s-96-42.98-96-96c0-3.984 .7012-7.776 1.174-11.63l-94.68-47.34C145.2 341.7 121.9 352 96 352c-53.02 0-96-42.98-96-96s42.98-96 96-96c25.86 0 49.23 10.34 66.5 26.97l94.68-47.34C256.7 135.8 256 131.1 256 128c0-53.02 42.98-96 96-96s96 42.98 96 96s-42.98 96-96 96c-25.86 0-49.23-10.34-66.5-26.97l-94.68 47.34C191.3 248.2 192 252 192 256S191.3 263.8 190.8 267.6l94.68 47.34C302.8 298.3 326.1 288 352 288C405 288 448 330.1 448 384z"/></svg>
